rospo-icon-theme-classic-common/48x48/apps/xcas.svg

<svg height="48" width="48" xmlns="http://www.w3.org/2000/svg"><rect fill="#936ff6" height="39.996" rx="20" ry="19.998" transform="matrix(0 -1 -1 0 0 0)" width="40" x="-44" y="-44"/><path d="m24 4c-11.079 0-19.998 8.92-19.998 20 0 .16772-.004.33329 0 .5.2642-10.846 9.087-19.5 19.998-19.5s19.734 8.6536 19.998 19.5c.004-.16671 0-.33228 0-.5 0-11.08-8.919-20-19.998-20z" fill="#fff" opacity=".2"/><path d="m4.0117 24.5c-.0041.167-.0117.332-.0117.5 0 11.08 8.92 20 20 20s20-8.92 20-20c0-.168-.008-.333-.012-.5-.264 10.846-9.076 19.5-19.988 19.5s-19.724-8.654-19.988-19.5z" opacity=".2"/><path d="m23.998047 10c-1.104569 0-2 .895431-2 2 .0013.713268.38229 1.371883 1 1.728516v2.279296l-2.400391-1.798828c-1.074496-.859399-2.325409.809167-1.199218 1.59961l3.599609 2.699218v4.759766l-4.121094-2.378906-.517578-4.304688c.0247-.574393-.438808-1.051268-1.013672-1.042968h-.01172l-.01367.002c-.02872.0008-.05739.0027-.08594.0059-.550897.06226-.946029.560768-.880859 1.111328l.357424 2.978428-1.972657-1.138672c-.000162-.713564-.380486-1.372993-.998047-1.730469-.956329-.551145-2.178354-.223349-2.730468.732422-.551474.955818-.224594 2.177686.730468 2.730469.618306.356514 1.379741.356514 1.998047 0l1.97461 1.138672-2.759766 1.179687c-1.018707.422352-.704221 1.940828.398437 1.923828.134007-.0023.266182-.03154.388672-.08594l4.138672-1.767575 4.119141 2.378906-4.119141 2.378906-4.138672-1.767578c-.12249-.0544-.254665-.08362-.388672-.08594-1.102658-.017-1.417144 1.501476-.398437 1.923828l2.759766 1.179687-1.97461 1.138672c-.618306-.356514-1.379741-.356514-1.998047 0-.955062.552783-1.281942 1.774651-.730468 2.730469.552114.955771 1.774139 1.283567 2.730468.732422.617561-.357476.997885-1.016905.998047-1.730469l1.972657-1.138672-.357422 2.978516c-.06517.55056.329962 1.04907.880859 1.111328.02855.0032.05722.0051.08594.0059l.01367.002h.01172c.574864.0083 1.038376-.468575 1.013672-1.042968l.517578-4.304688 4.121094-2.378906v4.759766l-3.599609 2.699218c-1.126191.790443.124722 2.459009 1.199218 1.59961l2.400391-1.798828v2.279296c-.61771.356633-.998739 1.015248-1 1.728516 0 1.104569.895431 2 2 2s2-.895431 2-2c-.000565-.713966-.381687-1.373486-1-1.730469v-2.277343l2.400391 1.798828c.139485.104196.303755.170174.476562.191406.01169.0015.02341.0028.03516.0039.0292.0032.05852.0052.08789.0059 1.030365.01187 1.403221-1.353836.509765-1.867188l-3.509765-2.632812v-4.759766l4.123047 2.378906.539062 4.466797c.05539.457997.41688.818677.875.873047h.0039l.01367.002c.01624.0017.03252.003.04883.0039.01236.000881.02473.0015.03711.002h.01367c.671503.0083 1.160184-.634456.972656-1.279296l-.339841-2.818567 1.97461 1.138672c.000161.713563.380485 1.37299.998046 1.730469.956765.552475 2.180254.224521 2.732422-.732422.551146-.95633.223349-2.178355-.732422-2.730469-.618304-.356514-1.379741-.356514-1.998046 0l-1.97461-1.138672 2.759766-1.179687c1.037738-.427088.693207-1.976689-.427734-1.923828-.123427.0063-.244615.03545-.357422.08594l-4.138672 1.767575-4.121094-2.378906 4.121094-2.378906 4.138672 1.767578c.112807.05049.233995.07964.357422.08594 1.120941.05286 1.465472-1.49674.427734-1.923828l-2.759766-1.179687 1.97461-1.138672c.618305.356514 1.379742.356514 1.998046 0 .955771-.552114 1.283568-1.774139.732422-2.730469-.552168-.956946-1.775657-1.2849-2.732422-.732425-.617561.357479-.997885 1.016906-.998046 1.730469l-1.97461 1.138672.339844-2.81836c.187528-.64484-.301153-1.287596-.972656-1.279296h-.01367c-.01238.0005-.02475.0011-.03711.002-.01631.0009-.03259.0022-.04883.0039l-.01367.002h-.0039c-.45812.05437-.81961.41505-.875.873047l-.539062 4.466797-4.123047 2.378906v-4.759766l3.509765-2.632812c.893456-.513352.5206-1.879058-.509765-1.867188-.02937.000701-.05869.0027-.08789.0059-.01175.0011-.02347.0024-.03516.0039-.172807.02123-.337077.08721-.476562.191406l-2.400391 1.798828v-2.277343c.618313-.356983.999435-1.016503 1-1.730469 0-1.104569-.895431-2-2-2z" fill-rule="evenodd" opacity=".2"/><path d="m23.998047 9c-1.104569 0-2 .895431-2 2 .001261.713268.38229 1.371883 1 1.728516v2.279296l-2.400391-1.798828c-1.074496-.859399-2.325409.809167-1.199218 1.59961l3.599609 2.699218v4.759766l-4.121094-2.378906-.517578-4.304688c.024704-.574393-.438808-1.051268-1.013672-1.042968h-.011719l-.013672.001953c-.028719.0008-.057387.002659-.085937.005859-.550897.062258-.946029.560768-.880859 1.111328l.357422 2.978516-1.972657-1.138672c-.000162-.713564-.380486-1.372993-.998047-1.730469-.956329-.551145-2.178354-.223349-2.730468.732422-.551474.955818-.224594 2.177686.730468 2.730469.618306.356514 1.379741.356514 1.998047 0l1.97461 1.138672-2.759766 1.179687c-1.018707.422352-.704221 1.940828.398437 1.923828.134007-.00232.266182-.031537.388672-.085937l4.138672-1.767578 4.119141 2.378906-4.119141 2.378906-4.138672-1.767578c-.12249-.0544-.254665-.083617-.388672-.085937-1.102658-.017-1.417144 1.501476-.398437 1.923828l2.759766 1.179687-1.97461 1.138672c-.618306-.356514-1.379741-.356514-1.998047 0-.955062.552783-1.281942 1.774651-.730468 2.730469.552114.955771 1.774139 1.283567 2.730468.732422.617561-.357476.997885-1.016905.998047-1.730469l1.972657-1.138672-.357422 2.978516c-.06517.55056.329962 1.04907.880859 1.111328.02855.0032.057218.005059.085937.005859l.013672.001953h.011719c.574864.0083 1.038376-.468575 1.013672-1.042968l.517578-4.304688 4.121094-2.378906v4.759766l-3.599609 2.699218c-1.126191.790443.124722 2.459009 1.199218 1.59961l2.400391-1.798828v2.279296c-.61771.356633-.998739 1.015248-1 1.728516 0 1.104569.895431 2 2 2s2-.895431 2-2c-.000565-.713966-.381687-1.373486-1-1.730469v-2.277343l2.400391 1.798828c.139485.104196.303755.170174.476562.191406.01169.0015.023406.002806.035156.003906.0292.0032.058521.00516.087891.00586 1.030365.01187 1.403221-1.353836.509765-1.867188l-3.509765-2.632812v-4.759766l4.123047 2.378906.539062 4.466797c.05539.457997.41688.818677.875.873047h.003906l.013672.001953c.01624.0017.032518.003006.048828.003906.012361.000881.02473.001453.03711.001953h.013672c.671503.0083 1.160184-.634456.972656-1.279296l-.339844-2.81836 1.97461 1.138672c.000161.713563.380485 1.37299.998046 1.730469.956765.552475 2.180254.224521 2.732422-.732422.551146-.95633.223349-2.178355-.732422-2.730469-.618304-.356514-1.379741-.356514-1.998046 0l-1.97461-1.138672 2.759766-1.179687c1.037738-.427088.693207-1.976689-.427734-1.923828-.123427.0063-.244615.035447-.357422.085937l-4.138672 1.767578-4.121094-2.378906 4.121094-2.378906 4.138672 1.767578c.112807.05049.233995.079637.357422.085937 1.120941.052861 1.465472-1.49674.427734-1.923828l-2.759766-1.179687 1.97461-1.138672c.618305.356514 1.379742.356514 1.998046 0 .955771-.552114 1.283568-1.774139.732422-2.730469-.552168-.956943-1.775657-1.284897-2.732422-.732422-.617561.357479-.997885 1.016906-.998046 1.730469l-1.97461 1.138672.339844-2.81836c.187528-.64484-.301153-1.287596-.972656-1.279296h-.013672c-.01238.0005-.024749.001072-.03711.001953-.01631.0009-.032588.002206-.048828.003906l-.013672.001953h-.003906c-.45812.05437-.81961.41505-.875.873047l-.539062 4.466797-4.123047 2.378906v-4.759766l3.509765-2.632812c.893456-.513352.5206-1.879058-.509765-1.867188-.02937.000701-.058691.00266-.087891.00586-.01175.0011-.023466.002406-.035156.003906-.172807.021232-.337077.08721-.476562.191406l-2.400391 1.798828v-2.277343c.618313-.356983.999435-1.016503 1-1.730469 0-1.104569-.895431-2-2-2z" fill="#fff" fill-rule="evenodd"/></svg>

<svg xmlns="http://www.w3.org/2000/svg" width="48" height="48" version="1">
 <rect width="40" height="39.996" x="-44" y="-44" rx="20" ry="19.998" transform="matrix(0,-1,-1,0,0,0)" style="fill:#936ff6"/>
 <path fill="#fff" opacity=".2" d="m24 4c-11.079 0-19.998 8.92-19.998 20 0 0.16772-0.004 0.33329 0 0.5 0.2642-10.846 9.087-19.5 19.998-19.5s19.734 8.6536 19.998 19.5c0.004-0.16671 0-0.33228 0-0.5 0-11.08-8.919-20-19.998-20z"/>
 <path opacity=".2" d="m4.0117 24.5c-0.0041 0.167-0.0117 0.332-0.0117 0.5 0 11.08 8.92 20 20 20s20-8.92 20-20c0-0.168-0.008-0.333-0.012-0.5-0.264 10.846-9.076 19.5-19.988 19.5s-19.724-8.654-19.988-19.5z"/>
 <path d="m 23.998047,10 c -1.104569,0 -2,0.895431 -2,2 0.0013,0.713268 0.38229,1.371883 1,1.728516 l 0,2.279296 -2.400391,-1.798828 c -1.074496,-0.859399 -2.325409,0.809167 -1.199218,1.59961 l 3.599609,2.699218 0,4.759766 -4.121094,-2.378906 -0.517578,-4.304688 c 0.0247,-0.574393 -0.438808,-1.051268 -1.013672,-1.042968 l -0.01172,0 -0.01367,0.002 c -0.02872,8e-4 -0.05739,0.0027 -0.08594,0.0059 -0.550897,0.06226 -0.946029,0.560768 -0.880859,1.111328 L 16.710938,19.638672 14.738281,18.5 c -1.62e-4,-0.713564 -0.380486,-1.372993 -0.998047,-1.730469 -0.956329,-0.551145 -2.178354,-0.223349 -2.730468,0.732422 -0.551474,0.955818 -0.224594,2.177686 0.730468,2.730469 0.618306,0.356514 1.379741,0.356514 1.998047,0 l 1.97461,1.138672 -2.759766,1.179687 c -1.018707,0.422352 -0.704221,1.940828 0.398437,1.923828 0.134007,-0.0023 0.266182,-0.03154 0.388672,-0.08594 L 17.878906,22.621094 21.998047,25 17.878906,27.378906 13.740234,25.611328 c -0.12249,-0.0544 -0.254665,-0.08362 -0.388672,-0.08594 -1.102658,-0.017 -1.417144,1.501476 -0.398437,1.923828 l 2.759766,1.179687 -1.97461,1.138672 c -0.618306,-0.356514 -1.379741,-0.356514 -1.998047,0 -0.955062,0.552783 -1.281942,1.774651 -0.730468,2.730469 0.552114,0.955771 1.774139,1.283567 2.730468,0.732422 0.617561,-0.357476 0.997885,-1.016905 0.998047,-1.730469 l 1.972657,-1.138672 -0.357422,2.978516 c -0.06517,0.55056 0.329962,1.04907 0.880859,1.111328 0.02855,0.0032 0.05722,0.0051 0.08594,0.0059 l 0.01367,0.002 0.01172,0 c 0.574864,0.0083 1.038376,-0.468575 1.013672,-1.042968 l 0.517578,-4.304688 4.121094,-2.378906 0,4.759766 -3.599609,2.699218 c -1.126191,0.790443 0.124722,2.459009 1.199218,1.59961 l 2.400391,-1.798828 0,2.279296 c -0.61771,0.356633 -0.998739,1.015248 -1,1.728516 0,1.104569 0.895431,2 2,2 1.104569,0 2,-0.895431 2,-2 -5.65e-4,-0.713966 -0.381687,-1.373486 -1,-1.730469 l 0,-2.277343 2.400391,1.798828 c 0.139485,0.104196 0.303755,0.170174 0.476562,0.191406 0.01169,0.0015 0.02341,0.0028 0.03516,0.0039 0.0292,0.0032 0.05852,0.0052 0.08789,0.0059 1.030365,0.01187 1.403221,-1.353836 0.509765,-1.867188 l -3.509765,-2.632812 0,-4.759766 4.123047,2.378906 0.539062,4.466797 c 0.05539,0.457997 0.41688,0.818677 0.875,0.873047 l 0.0039,0 0.01367,0.002 c 0.01624,0.0017 0.03252,0.003 0.04883,0.0039 0.01236,8.81e-4 0.02473,0.0015 0.03711,0.002 l 0.01367,0 c 0.671503,0.0083 1.160184,-0.634456 0.972656,-1.279296 L 31.285156,30.361328 33.259766,31.5 c 1.61e-4,0.713563 0.380485,1.37299 0.998046,1.730469 0.956765,0.552475 2.180254,0.224521 2.732422,-0.732422 0.551146,-0.95633 0.223349,-2.178355 -0.732422,-2.730469 -0.618304,-0.356514 -1.379741,-0.356514 -1.998046,0 l -1.97461,-1.138672 2.759766,-1.179687 c 1.037738,-0.427088 0.693207,-1.976689 -0.427734,-1.923828 -0.123427,0.0063 -0.244615,0.03545 -0.357422,0.08594 L 30.121094,27.378906 26,25 l 4.121094,-2.378906 4.138672,1.767578 c 0.112807,0.05049 0.233995,0.07964 0.357422,0.08594 1.120941,0.05286 1.465472,-1.49674 0.427734,-1.923828 l -2.759766,-1.179687 1.97461,-1.138672 c 0.618305,0.356514 1.379742,0.356514 1.998046,0 0.955771,-0.552114 1.283568,-1.774139 0.732422,-2.730469 C 36.438066,16.54501 35.214577,16.217056 34.257812,16.769531 33.640251,17.12701 33.259927,17.786437 33.259766,18.5 l -1.97461,1.138672 0.339844,-2.81836 c 0.187528,-0.64484 -0.301153,-1.287596 -0.972656,-1.279296 l -0.01367,0 c -0.01238,5e-4 -0.02475,0.0011 -0.03711,0.002 -0.01631,9e-4 -0.03259,0.0022 -0.04883,0.0039 l -0.01367,0.002 -0.0039,0 c -0.45812,0.05437 -0.81961,0.41505 -0.875,0.873047 l -0.539062,4.466797 -4.123047,2.378906 0,-4.759766 3.509765,-2.632812 c 0.893456,-0.513352 0.5206,-1.879058 -0.509765,-1.867188 -0.02937,7.01e-4 -0.05869,0.0027 -0.08789,0.0059 -0.01175,0.0011 -0.02347,0.0024 -0.03516,0.0039 -0.172807,0.02123 -0.337077,0.08721 -0.476562,0.191406 l -2.400391,1.798828 0,-2.277343 c 0.618313,-0.356983 0.999435,-1.016503 1,-1.730469 0,-1.104569 -0.895431,-2 -2,-2 z" style="opacity:0.2;fill-rule:evenodd"/>
 <path style="fill:#ffffff;fill-rule:evenodd" d="M 23.998047 9 C 22.893478 9 21.998047 9.895431 21.998047 11 C 21.999308 11.713268 22.380337 12.371883 22.998047 12.728516 L 22.998047 15.007812 L 20.597656 13.208984 C 19.52316 12.349585 18.272247 14.018151 19.398438 14.808594 L 22.998047 17.507812 L 22.998047 22.267578 L 18.876953 19.888672 L 18.359375 15.583984 C 18.384079 15.009591 17.920567 14.532716 17.345703 14.541016 L 17.333984 14.541016 L 17.320312 14.542969 C 17.291593 14.543769 17.262925 14.545628 17.234375 14.548828 C 16.683478 14.611086 16.288346 15.109596 16.353516 15.660156 L 16.710938 18.638672 L 14.738281 17.5 C 14.738119 16.786436 14.357795 16.127007 13.740234 15.769531 C 12.783905 15.218386 11.56188 15.546182 11.009766 16.501953 C 10.458292 17.457771 10.785172 18.679639 11.740234 19.232422 C 12.35854 19.588936 13.119975 19.588936 13.738281 19.232422 L 15.712891 20.371094 L 12.953125 21.550781 C 11.934418 21.973133 12.248904 23.491609 13.351562 23.474609 C 13.485569 23.472289 13.617744 23.443072 13.740234 23.388672 L 17.878906 21.621094 L 21.998047 24 L 17.878906 26.378906 L 13.740234 24.611328 C 13.617744 24.556928 13.485569 24.527711 13.351562 24.525391 C 12.248904 24.508391 11.934418 26.026867 12.953125 26.449219 L 15.712891 27.628906 L 13.738281 28.767578 C 13.119975 28.411064 12.35854 28.411064 11.740234 28.767578 C 10.785172 29.320361 10.458292 30.542229 11.009766 31.498047 C 11.56188 32.453818 12.783905 32.781614 13.740234 32.230469 C 14.357795 31.872993 14.738119 31.213564 14.738281 30.5 L 16.710938 29.361328 L 16.353516 32.339844 C 16.288346 32.890404 16.683478 33.388914 17.234375 33.451172 C 17.262925 33.454372 17.291593 33.456231 17.320312 33.457031 L 17.333984 33.458984 L 17.345703 33.458984 C 17.920567 33.467284 18.384079 32.990409 18.359375 32.416016 L 18.876953 28.111328 L 22.998047 25.732422 L 22.998047 30.492188 L 19.398438 33.191406 C 18.272247 33.981849 19.52316 35.650415 20.597656 34.791016 L 22.998047 32.992188 L 22.998047 35.271484 C 22.380337 35.628117 21.999308 36.286732 21.998047 37 C 21.998047 38.104569 22.893478 39 23.998047 39 C 25.102616 39 25.998047 38.104569 25.998047 37 C 25.997482 36.286034 25.61636 35.626514 24.998047 35.269531 L 24.998047 32.992188 L 27.398438 34.791016 C 27.537923 34.895212 27.702193 34.96119 27.875 34.982422 C 27.88669 34.983922 27.898406 34.985228 27.910156 34.986328 C 27.939356 34.989528 27.968677 34.991488 27.998047 34.992188 C 29.028412 35.004058 29.401268 33.638352 28.507812 33.125 L 24.998047 30.492188 L 24.998047 25.732422 L 29.121094 28.111328 L 29.660156 32.578125 C 29.715546 33.036122 30.077036 33.396802 30.535156 33.451172 L 30.539062 33.451172 L 30.552734 33.453125 C 30.568974 33.454825 30.585252 33.456131 30.601562 33.457031 C 30.613923 33.457912 30.626292 33.458484 30.638672 33.458984 L 30.652344 33.458984 C 31.323847 33.467284 31.812528 32.824528 31.625 32.179688 L 31.285156 29.361328 L 33.259766 30.5 C 33.259927 31.213563 33.640251 31.87299 34.257812 32.230469 C 35.214577 32.782944 36.438066 32.45499 36.990234 31.498047 C 37.54138 30.541717 37.213583 29.319692 36.257812 28.767578 C 35.639508 28.411064 34.878071 28.411064 34.259766 28.767578 L 32.285156 27.628906 L 35.044922 26.449219 C 36.08266 26.022131 35.738129 24.47253 34.617188 24.525391 C 34.493761 24.531691 34.372573 24.560838 34.259766 24.611328 L 30.121094 26.378906 L 26 24 L 30.121094 21.621094 L 34.259766 23.388672 C 34.372573 23.439162 34.493761 23.468309 34.617188 23.474609 C 35.738129 23.52747 36.08266 21.977869 35.044922 21.550781 L 32.285156 20.371094 L 34.259766 19.232422 C 34.878071 19.588936 35.639508 19.588936 36.257812 19.232422 C 37.213583 18.680308 37.54138 17.458283 36.990234 16.501953 C 36.438066 15.54501 35.214577 15.217056 34.257812 15.769531 C 33.640251 16.12701 33.259927 16.786437 33.259766 17.5 L 31.285156 18.638672 L 31.625 15.820312 C 31.812528 15.175472 31.323847 14.532716 30.652344 14.541016 L 30.638672 14.541016 C 30.626292 14.541516 30.613923 14.542088 30.601562 14.542969 C 30.585252 14.543869 30.568974 14.545175 30.552734 14.546875 L 30.539062 14.548828 L 30.535156 14.548828 C 30.077036 14.603198 29.715546 14.963878 29.660156 15.421875 L 29.121094 19.888672 L 24.998047 22.267578 L 24.998047 17.507812 L 28.507812 14.875 C 29.401268 14.361648 29.028412 12.995942 27.998047 13.007812 C 27.968677 13.008513 27.939356 13.010472 27.910156 13.013672 C 27.898406 13.014772 27.88669 13.016078 27.875 13.017578 C 27.702193 13.03881 27.537923 13.104788 27.398438 13.208984 L 24.998047 15.007812 L 24.998047 12.730469 C 25.61636 12.373486 25.997482 11.713966 25.998047 11 C 25.998047 9.895431 25.102616 9 23.998047 9 z"/>
</svg>
